X:119
T:Reel 119
M:4/4
K:Emin
L:1/8
A|d2Bc BGEG|BcBG BEEF|d2BG A2Ac|fdad fddf|e2BA GABG|FGEF Bdcd|ecdB cABc|dBAG FDD|||gfeg gfeg|feaf bgaf|gfed edef|gefd Beef|gfga bgeg|fgag fddf|gagg f2ef|dBAc BEE|
